assets/img/main/deal/3.svg

<svg width="315" height="355" viewBox="0 0 315 355" fill="none" xmlns="http://www.w3.org/2000/svg">
<path d="M160.903 199.915C165.011 200.891 169.045 201.201 172.224 203.012C176.115 205.229 179.613 205.255 183.555 203.996C185.915 203.242 188.407 202.88 190.735 202.051C199.712 198.853 208.185 199.995 216.78 203.883C221.254 205.906 226.377 206.493 231.823 207.886C231.823 204.477 231.876 202.541 231.814 200.608C231.56 192.692 235.357 186.931 241.631 182.675C245.054 180.354 248.713 178.351 252.383 176.428C259.36 172.772 265.17 174.445 269.272 181.284C276.096 192.662 282.843 204.087 289.596 215.508C296.772 227.645 303.923 239.797 311.073 251.95C316.701 261.514 315.252 266.683 305.596 272.416C298.89 276.398 292.384 281.574 284.039 279.636C279.881 278.67 277.009 279.513 273.643 282.322C277.939 289.151 278.831 296.365 273.798 303.382C268.768 310.395 261.734 312.15 253.648 310.383C250.36 320.579 245.309 324.433 234.862 325.275C233.579 325.379 231.792 326.526 231.27 327.663C225.54 340.153 219.082 343.229 207.368 339.836C203.235 344.16 200.08 348.718 195.801 351.618C190.547 355.178 184.432 354.587 178.822 351.31C177.106 350.307 175.339 349.375 173.706 348.25C169.521 345.37 166.083 344.279 161.152 348.152C154.741 353.187 144.311 349.853 138.244 342.446C137.273 341.262 135.143 340.318 133.618 340.41C123.253 341.036 118.02 338.186 113.439 329.21C112.9 328.153 111.571 326.993 110.46 326.817C102.536 325.563 96.5098 321.979 93.1863 314.314C92.7168 313.231 90.7596 312.277 89.4208 312.174C81.9945 311.601 77.0157 307.625 74.0616 301.147C71.2054 294.883 72.2823 288.856 76.3141 283.318C77.6553 281.476 78.9209 279.578 80.4938 277.313C75.5353 278.25 71.2352 279.849 66.9952 279.703C57.3646 279.371 49.8687 273.612 43.2829 267.46C38.7311 263.207 40.5729 257.369 43.5936 252.315C53.2898 236.095 62.9553 219.856 72.604 203.607C76.8377 196.478 80.9021 189.246 85.2235 182.17C90.4569 173.602 96.014 172.335 104.688 177.64C108.633 180.052 112.584 182.504 116.249 185.308C121.345 189.205 122.97 194.878 123.661 201.019C123.824 202.465 124.942 204.306 126.173 205.042C131.131 208.007 136.251 206.938 141.458 205.268C147.717 203.26 154.112 201.68 160.903 199.915ZM162.08 303.415C162.08 305.056 162.08 306.698 162.08 308.226C174.607 313.198 178.065 321.403 173.496 335.365C177.307 337.519 181.06 339.982 185.099 341.817C188.463 343.346 191.945 342.633 193.651 339.07C195.22 335.792 194.605 332.548 191.17 330.433C188.07 328.523 184.826 326.819 181.886 324.692C180.542 323.72 178.959 321.951 178.952 320.537C178.943 318.637 179.87 315.804 181.281 315.067C182.951 314.194 185.938 314.438 187.704 315.397C195.126 319.424 202.25 323.994 209.593 328.173C213.773 330.551 217.764 329.812 219.66 326.731C221.95 323.011 220.913 319.714 216.252 316.866C208.765 312.291 201.147 307.929 193.67 303.339C190.669 301.496 187.545 299.367 189.831 295.049C191.686 291.545 194.83 291.109 199.208 293.676C209.643 299.795 220.027 306.002 230.475 312.101C235.666 315.131 239.008 314.67 241.21 310.85C243.34 307.155 241.922 303.608 237.045 300.713C226.496 294.452 215.882 288.299 205.385 281.953C202.431 280.167 199.866 277.631 202.332 273.85C204.637 270.315 207.498 270.191 211.274 272.49C225.154 280.944 239.215 289.103 253.284 297.241C255.369 298.448 258.183 300.042 260.086 299.487C262.325 298.834 265.131 296.232 265.481 294.11C265.819 292.061 263.939 288.6 262.01 287.393C249.931 279.83 237.558 272.737 225.297 265.462C215.217 259.481 205.158 253.464 194.855 247.322C191.682 254.165 186.908 258.66 180.306 261.316C169.099 265.825 160.095 258.439 161.292 248.985C162.826 236.876 158.245 224.027 166.27 212.83C159.891 209.089 154.516 211.949 149.293 214.276C139.122 218.807 129.089 220.952 118.747 213.72C107.871 232.101 97.1911 250.149 86.5116 268.197C86.7723 268.599 87.033 269.001 87.2937 269.403C97.3358 264.531 105.767 266.49 112.471 274.872C125.502 266.03 137.277 271.039 142.669 284.34C155.918 285.928 162.005 291.63 162.08 303.415ZM210.641 213.775C207.119 213.047 203.458 211.331 200.104 211.801C193.436 212.736 186.688 214.259 180.475 216.776C177.413 218.016 173.685 221.816 173.356 224.8C172.402 233.43 173.018 242.233 173.018 250.985C180.225 250.433 184.135 246.642 184.913 239.737C185.67 233.022 189.188 231.101 194.921 234.475C215.919 246.832 236.983 259.084 257.768 271.792C262.616 274.757 266.075 274.771 269.825 270.519C269.398 269.737 268.955 268.865 268.459 268.026C263.565 259.743 258.708 251.437 253.739 243.199C251.705 239.826 251.633 236.896 255.2 234.654C258.807 232.388 261.136 234.577 263.13 237.305C264.009 238.507 264.68 239.861 265.453 241.141C270.172 248.959 274.78 256.848 279.659 264.564C282.154 268.509 285.964 269.929 290.389 267.978C293.55 266.584 296.428 264.558 299.551 263.064C302.83 261.495 302.772 259.772 300.994 256.821C291.323 240.772 281.873 224.591 272.334 208.463C267.882 200.937 263.401 193.429 258.742 185.592C254.892 187.896 251.431 189.816 248.127 191.977C242.562 195.616 241.431 200.265 244.634 206.088C246.07 208.7 247.766 211.167 249.278 213.738C251.871 218.145 251.599 221.594 248.24 223.267C244.266 225.245 241.764 223.414 239.831 219.728C239.172 218.474 236.824 216.846 235.907 217.183C227.115 220.414 219.282 217.211 210.641 213.775ZM94.8212 232.291C99.9209 223.577 105.088 214.9 110.098 206.134C113.645 199.926 112.339 195.304 106.21 191.537C103.129 189.644 100.018 187.8 96.2541 185.532C81.3337 210.707 66.5548 235.643 51.7013 260.705C54.7354 262.602 57.2386 264.2 59.7789 265.738C60.7695 266.337 61.8285 266.832 62.8826 267.317C68.657 269.976 73.0481 268.661 76.3254 263.19C82.3694 253.1 88.3598 242.978 94.8212 232.291ZM132.936 307.423C130.131 311.312 127.104 315.066 124.592 319.136C122.648 322.286 122.948 325.686 126.204 327.971C129.095 329.999 132.674 330.082 134.812 327.304C140.245 320.243 145.325 312.893 150.208 305.437C152.142 302.484 151.448 299.007 148.365 297.135C145.15 295.183 141.669 295.319 139.135 298.782C137.183 301.449 135.297 304.164 132.936 307.423ZM119.937 306.425C123.28 301.716 126.809 297.125 129.898 292.255C131.762 289.316 132.475 285.369 129.013 283.486C126.782 282.272 121.878 282.1 120.663 283.549C114.751 290.601 109.382 298.176 104.556 306.018C103.571 307.619 104.969 311.92 106.644 313.627C108.931 315.957 112.444 315.843 114.948 312.88C116.548 310.986 118.024 308.988 119.937 306.425ZM87.8827 286.434C86.9101 287.772 85.8047 289.035 84.9923 290.465C83.2627 293.508 83.1905 296.537 85.9877 299.018C88.9285 301.627 92.4606 301.46 94.8752 298.848C98.093 295.367 101.111 291.41 102.999 287.122C103.864 285.158 102.585 280.509 100.914 279.609C98.8035 278.472 95.0305 279.312 92.4904 280.451C90.657 281.272 89.6654 283.972 87.8827 286.434ZM146.723 332.534C147.917 338.527 153.195 341.22 157.339 337.448C160.153 334.887 162.531 331.34 163.783 327.77C164.476 325.793 163.139 322.051 161.44 320.613C160.011 319.404 155.671 319.352 154.485 320.583C151.413 323.774 149.37 327.956 146.723 332.534Z" fill="#1573C9"/>
<path d="M73.9314 316.991C76.752 316.996 79.4145 316.296 81.3322 317.191C83.56 318.231 85.1347 320.67 86.9928 322.502C85.0034 324.337 83.0472 327.724 81.0195 327.767C62.029 328.174 43.0204 328.297 24.0293 327.905C11.5995 327.649 0.209661 314.433 0.155973 301.067C0.0850044 283.402 0.138433 265.736 0.138433 248.07C0.138425 174.906 0.134573 101.743 0.142126 28.5795C0.143438 15.8616 7.50844 5.36018 19.1263 1.66023C20.9829 1.06897 23.0339 0.860988 24.9953 0.859458C78.3263 0.817855 131.657 0.863288 184.988 0.766147C190.053 0.756926 194.043 2.6461 197.437 6.02321C214.321 22.8208 231.112 39.712 248.004 56.5016C252.557 61.0273 254.453 66.6998 254.496 72.7401C254.697 100.904 254.594 129.07 254.56 157.236C254.558 158.542 254.632 160.298 253.878 161.062C252.202 162.759 249.87 165.228 248.089 165.016C246.178 164.787 244.359 162.008 242.968 160.016C242.338 159.114 242.826 157.423 242.826 156.09C242.824 129.258 242.736 102.425 242.917 75.5945C242.946 71.4335 241.792 70.1594 237.624 70.2988C228.634 70.5993 219.628 70.4044 210.628 70.3881C196.079 70.3617 184.066 58.3431 184.055 43.811C184.047 33.3483 184.053 22.8855 184.053 11.861C181.71 11.861 179.769 11.861 177.827 11.861C128.329 11.861 78.8303 12.0489 29.3348 11.7086C18.9561 11.6372 11.8405 17.1055 11.1826 29.3428C11.129 30.3399 11.1733 31.3424 11.1733 32.3423C11.1732 120.172 11.1623 208.001 11.2158 295.831C11.2178 299.116 11.5359 302.469 12.247 305.671C13.6981 312.204 20.208 316.952 27.4461 316.975C42.7786 317.025 58.1114 316.99 73.9314 316.991ZM232.855 56.6295C220.61 44.4025 208.366 32.1756 195.186 19.0143C195.186 28.7247 194.848 36.9831 195.29 45.1997C195.664 52.1636 201.459 58.3338 208.312 58.8431C216.406 59.4445 224.57 59.103 232.704 59.0627C232.916 59.0616 233.123 57.816 232.855 56.6295Z" fill="#1472C9"/>
<path d="M51.0479 126.905C103.177 126.905 154.815 126.903 206.452 126.916C208.278 126.916 210.493 126.45 211.84 127.295C213.948 128.62 216.873 130.894 216.854 132.739C216.834 134.685 213.907 136.764 211.953 138.438C211.268 139.025 209.7 138.605 208.536 138.605C154.566 138.609 100.597 138.609 46.6279 138.603C45.2975 138.603 43.917 138.742 42.6469 138.445C39.7204 137.76 36.6384 136.215 37.6314 132.901C38.3257 130.584 40.8569 128.242 43.1559 127.153C45.2025 126.184 48.0575 126.921 51.0479 126.905Z" fill="#1975CA"/>
<path d="M169 106.946C128.36 106.946 88.2196 106.959 48.0793 106.909C45.9767 106.907 43.549 106.933 41.8606 105.944C40.0247 104.867 37.5639 102.459 37.7513 100.92C38.0002 98.8776 40.3586 96.89 42.1972 95.3361C43.0001 94.6575 44.7619 95.0616 46.0882 95.0613C100.219 95.0526 154.351 95.0396 208.482 95.1089C210.539 95.1115 213.033 95.3601 214.527 96.5204C215.936 97.6158 217.048 100.138 216.881 101.899C216.74 103.388 214.821 105.2 213.252 105.934C211.406 106.798 209.09 106.893 206.975 106.906C194.484 106.986 181.992 106.946 169 106.946Z" fill="#1472C9"/>
<path d="M57.0044 59.1366C79.6468 59.1366 101.79 59.1363 123.934 59.1374C125.099 59.1374 126.297 58.9755 127.424 59.1879C130.707 59.8068 132.94 61.455 132.581 65.2292C132.264 68.5573 130.426 70.3736 127.072 70.3765C99.1019 70.4004 71.1311 70.4218 43.1607 70.351C39.7804 70.3424 37.3739 68.6823 37.4449 64.888C37.5116 61.3227 39.5331 59.319 43.0212 59.1847C47.5099 59.012 52.0101 59.1388 57.0044 59.1366Z" fill="#1573C9"/>
<path d="M233.093 56.89C233.122 57.8159 232.916 59.0615 232.703 59.0625C224.57 59.1028 216.406 59.4443 208.312 58.8429C201.459 58.3336 195.664 52.1634 195.29 45.1995C194.848 36.983 195.186 28.7245 195.186 19.0142C208.366 32.1754 220.61 44.4023 233.093 56.89Z" fill="#F8FBFD"/>
</svg>

<svg width="315" height="355" viewBox="0 0 315 355" fill="none" xmlns="http://www.w3.org/2000/svg"><path d="M160.903 199.915c4.108.976 8.142 1.286 11.321 3.097 3.891 2.217 7.389 2.243 11.331.984 2.36-.754 4.852-1.116 7.18-1.945 8.977-3.198 17.45-2.056 26.045 1.832 4.474 2.023 9.597 2.61 15.043 4.003 0-3.409.053-5.345-.009-7.278-.254-7.916 3.543-13.677 9.817-17.933 3.423-2.321 7.082-4.324 10.752-6.247 6.977-3.656 12.787-1.983 16.889 4.856 6.824 11.378 13.571 22.803 20.324 34.224a19540.187 19540.187 0 0121.477 36.442c5.628 9.564 4.179 14.733-5.477 20.466-6.706 3.982-13.212 9.158-21.557 7.22-4.158-.966-7.03-.123-10.396 2.686 4.296 6.829 5.188 14.043.155 21.06-5.03 7.013-12.064 8.768-20.15 7.001-3.288 10.196-8.339 14.05-18.786 14.892-1.283.104-3.07 1.251-3.592 2.388-5.73 12.49-12.188 15.566-23.902 12.173-4.133 4.324-7.288 8.882-11.567 11.782-5.254 3.56-11.369 2.969-16.979-.308-1.716-1.003-3.483-1.935-5.116-3.06-4.185-2.88-7.623-3.971-12.554-.098-6.411 5.035-16.841 1.701-22.908-5.706-.971-1.184-3.101-2.128-4.626-2.036-10.365.626-15.598-2.224-20.179-11.2-.539-1.057-1.868-2.217-2.979-2.393-7.924-1.254-13.95-4.838-17.274-12.503-.47-1.083-2.426-2.037-3.765-2.14-7.427-.573-12.405-4.549-15.36-11.027-2.856-6.264-1.779-12.291 2.253-17.829 1.341-1.842 2.607-3.74 4.18-6.005-4.959.937-9.259 2.536-13.499 2.39-9.63-.332-17.126-6.091-23.712-12.243-4.552-4.253-2.71-10.091.31-15.145 9.697-16.22 19.362-32.459 29.011-48.708 4.234-7.129 8.298-14.361 12.62-21.437 5.233-8.568 10.79-9.835 19.464-4.53 3.945 2.412 7.896 4.864 11.561 7.668 5.096 3.897 6.721 9.57 7.412 15.711.163 1.446 1.281 3.287 2.512 4.023 4.958 2.965 10.078 1.896 15.285.226 6.259-2.008 12.654-3.588 19.445-5.353zm1.177 103.5v4.811c12.527 4.972 15.985 13.177 11.416 27.139 3.811 2.154 7.564 4.617 11.603 6.452 3.364 1.529 6.846.816 8.552-2.747 1.569-3.278.954-6.522-2.481-8.637-3.1-1.91-6.344-3.614-9.284-5.741-1.344-.972-2.927-2.741-2.934-4.155-.009-1.9.918-4.733 2.329-5.47 1.67-.873 4.657-.629 6.423.33 7.422 4.027 14.546 8.597 21.889 12.776 4.18 2.378 8.171 1.639 10.067-1.442 2.29-3.72 1.253-7.017-3.408-9.865-7.487-4.575-15.105-8.937-22.582-13.527-3.001-1.843-6.125-3.972-3.839-8.29 1.855-3.504 4.999-3.94 9.377-1.373 10.435 6.119 20.819 12.326 31.267 18.425 5.191 3.03 8.533 2.569 10.735-1.251 2.13-3.695.712-7.242-4.165-10.137-10.549-6.261-21.163-12.414-31.66-18.76-2.954-1.786-5.519-4.322-3.053-8.103 2.305-3.535 5.166-3.659 8.942-1.36 13.88 8.454 27.941 16.613 42.01 24.751 2.085 1.207 4.899 2.801 6.802 2.246 2.239-.653 5.045-3.255 5.395-5.377.338-2.049-1.542-5.51-3.471-6.717-12.079-7.563-24.452-14.656-36.713-21.931-10.08-5.981-20.139-11.998-30.442-18.14-3.173 6.843-7.947 11.338-14.549 13.994-11.207 4.509-20.211-2.877-19.014-12.331 1.534-12.109-3.047-24.958 4.978-36.155-6.379-3.741-11.754-.881-16.977 1.446-10.171 4.531-20.204 6.676-30.546-.556l-32.235 54.477.782 1.206c10.042-4.872 18.473-2.913 25.177 5.469 13.031-8.842 24.806-3.833 30.198 9.468 13.249 1.588 19.336 7.29 19.411 19.075zm48.561-89.64c-3.522-.728-7.183-2.444-10.537-1.974-6.668.935-13.416 2.458-19.629 4.975-3.062 1.24-6.79 5.04-7.119 8.024-.954 8.63-.338 17.433-.338 26.185 7.207-.552 11.117-4.343 11.895-11.248.757-6.715 4.275-8.636 10.008-5.262 20.998 12.357 42.062 24.609 62.847 37.317 4.848 2.965 8.307 2.979 12.057-1.273-.427-.782-.87-1.654-1.366-2.493-4.894-8.283-9.751-16.589-14.72-24.827-2.034-3.373-2.106-6.303 1.461-8.545 3.607-2.266 5.936-.077 7.93 2.651.879 1.202 1.55 2.556 2.323 3.836 4.719 7.818 9.327 15.707 14.206 23.423 2.495 3.945 6.305 5.365 10.73 3.414 3.161-1.394 6.039-3.42 9.162-4.914 3.279-1.569 3.221-3.292 1.443-6.243-9.671-16.049-19.121-32.23-28.66-48.358-4.452-7.526-8.933-15.034-13.592-22.871-3.85 2.304-7.311 4.224-10.615 6.385-5.565 3.639-6.696 8.288-3.493 14.111 1.436 2.612 3.132 5.079 4.644 7.65 2.593 4.407 2.321 7.856-1.038 9.529-3.974 1.978-6.476.147-8.409-3.539-.659-1.254-3.007-2.882-3.924-2.545-8.792 3.231-16.625.028-25.266-3.408zm-115.82 18.516c5.1-8.714 10.267-17.391 15.277-26.157 3.547-6.208 2.241-10.83-3.888-14.597-3.081-1.893-6.192-3.737-9.956-6.005l-44.553 75.173c3.034 1.897 5.538 3.495 8.078 5.033.99.599 2.05 1.094 3.104 1.579 5.774 2.659 10.165 1.344 13.442-4.127 6.044-10.09 12.035-20.212 18.496-30.899zm38.115 75.132c-2.805 3.889-5.832 7.643-8.344 11.713-1.944 3.15-1.644 6.55 1.612 8.835 2.891 2.028 6.47 2.111 8.608-.667 5.433-7.061 10.513-14.411 15.396-21.867 1.934-2.953 1.24-6.43-1.843-8.302-3.215-1.952-6.696-1.816-9.23 1.647-1.952 2.667-3.838 5.382-6.199 8.641zm-12.999-.998c3.343-4.709 6.872-9.3 9.961-14.17 1.864-2.939 2.577-6.886-.885-8.769-2.231-1.214-7.135-1.386-8.35.063-5.912 7.052-11.281 14.627-16.107 22.469-.985 1.601.413 5.902 2.088 7.609 2.287 2.33 5.8 2.216 8.304-.747 1.6-1.894 3.076-3.892 4.989-6.455zm-32.054-19.991c-.973 1.338-2.078 2.601-2.89 4.031-1.73 3.043-1.802 6.072.995 8.553 2.94 2.609 6.473 2.442 8.887-.17 3.218-3.481 6.236-7.438 8.124-11.726.865-1.964-.414-6.613-2.085-7.513-2.11-1.137-5.883-.297-8.424.842-1.833.821-2.825 3.521-4.607 5.983zm58.84 46.1c1.194 5.993 6.472 8.686 10.616 4.914 2.814-2.561 5.192-6.108 6.444-9.678.693-1.977-.644-5.719-2.343-7.157-1.429-1.209-5.769-1.261-6.955-.03-3.072 3.191-5.115 7.373-7.762 11.951z" fill="#1573C9"/><path d="M73.931 316.991c2.821.005 5.484-.695 7.401.2 2.228 1.04 3.803 3.479 5.66 5.311-1.989 1.835-3.945 5.222-5.973 5.265-18.99.407-37.999.53-56.99.138C11.6 327.649.21 314.433.156 301.067.085 283.402.138 265.736.138 248.07c0-73.164-.003-146.327.004-219.49C.143 15.861 7.508 5.36 19.126 1.66c1.857-.591 3.908-.799 5.87-.8C78.325.817 131.656.862 184.987.765c5.065-.01 9.055 1.88 12.449 5.257 16.884 16.798 33.675 33.689 50.567 50.479 4.553 4.525 6.449 10.198 6.492 16.238.201 28.164.098 56.33.064 84.496-.002 1.306.072 3.062-.682 3.826-1.676 1.697-4.008 4.166-5.789 3.954-1.911-.229-3.73-3.008-5.121-5-.63-.902-.142-2.593-.142-3.926-.002-26.832-.09-53.665.091-80.496.029-4.16-1.125-5.435-5.293-5.295-8.99.3-17.996.105-26.996.09-14.549-.027-26.562-12.046-26.573-26.578-.008-10.463-.002-20.925-.002-31.95h-6.226c-49.498 0-98.997.188-148.492-.152-10.379-.072-17.495 5.396-18.152 17.634-.054.997-.01 2-.01 3 0 87.829-.01 175.658.043 263.488.002 3.285.32 6.638 1.031 9.84 1.451 6.533 7.961 11.281 15.2 11.304 15.332.05 30.664.015 46.484.016zM232.855 56.63l-37.669-37.616c0 9.71-.338 17.97.104 26.186.374 6.964 6.169 13.134 13.022 13.643 8.094.601 16.258.26 24.392.22.212-.001.419-1.247.151-2.434z" fill="#1472C9"/><path d="M51.048 126.905c52.129 0 103.767-.002 155.404.011 1.826 0 4.041-.466 5.388.379 2.108 1.325 5.033 3.599 5.014 5.444-.02 1.946-2.947 4.025-4.901 5.699-.685.587-2.253.167-3.417.167-53.97.004-107.939.004-161.908-.002-1.33 0-2.711.139-3.981-.158-2.927-.685-6.009-2.23-5.016-5.544.695-2.317 3.226-4.659 5.525-5.748 2.047-.969 4.901-.232 7.892-.248z" fill="#1975CA"/><path d="M169 106.946c-40.64 0-80.78.013-120.92-.037-2.103-.002-4.531.024-6.22-.965-1.835-1.077-4.296-3.485-4.109-5.024.25-2.042 2.608-4.03 4.446-5.584.803-.678 2.565-.274 3.891-.275 54.131-.008 108.263-.021 162.394.048 2.057.003 4.551.251 6.045 1.411 1.409 1.096 2.521 3.618 2.354 5.379-.141 1.489-2.06 3.301-3.629 4.035-1.846.864-4.162.959-6.277.972-12.491.08-24.983.04-37.975.04z" fill="#1472C9"/><path d="M57.004 59.137h66.93c1.165 0 2.363-.162 3.49.05 3.283.62 5.516 2.268 5.157 6.042-.317 3.328-2.155 5.145-5.509 5.147-27.97.024-55.94.046-83.911-.025-3.38-.009-5.787-1.669-5.716-5.463.067-3.565 2.088-5.569 5.576-5.703 4.489-.173 8.99-.046 13.983-.048z" fill="#1573C9"/><path d="M233.093 56.89c.029.926-.177 2.172-.39 2.172-8.133.04-16.297.382-24.391-.22-6.853-.508-12.648-6.679-13.022-13.642-.442-8.217-.104-16.476-.104-26.186a59008.166 59008.166 0 0137.907 37.876z" fill="#F8FBFD"/></svg>
